X: 89
T: Die Nomadin (F)
C: David Schonfeld
N: Composed for NOMAD 2004
M: 23/44
L: 1/8
K: F
B AB \
|:"F"c2 f2 f2 | "Bb"d4 B2 | "C7"G2 c2 c2 | "F"A4 F2 \
| "F"c2 f2 f2 | "Bb"d4 B2 | "C7"G2 c2 c2 | "F"F2 zF AB |
| "F"c2 f2 | "Bb"d2 B2 | "C7"G2 c2 | "Dm"A2 F2 \
| "C7"G2 c2 c2 | "F"A2 F2 AB | "F"c2 f2 | "Bb"d2 B2 \
| "C7"G2 c2 | "Dm"A2 F2 | "C7"G2 c2 c2 |1 "F"F3 zAB :|2 "F"F2 z |]
%%sep 2 1 500
